!!!!SEGMENT: pl-wn--sd-xvi-qu-273--146_gomolka-mikolaj--tobie-niesmiertelny-panie.krn
!!!cenid: 15xx:351
!!!COM: Gomółka, Mikołaj
!!!COM-rismid: pe30013343
!!!CDT: ~1535->1591/04/30
!!!CNT: Polish
!!!GTL: Melodiae na psalterz polski
!!!OTL: CXLVI. Tobie, nieśmiertelny Panie,
!!!ONB: PSAL: CXLVI. Lauda anima mea dominum, laudabo dominum in vita mea.
!!!PDT: 1580
!!!AGN: Sacred
!!!SMS-siglum: PL-Wn
!!!SMS-shelfmark: SD XVI.Qu.273
!!!SMS-shelfwork: 147 G
!!!NIFC-rismid:
!!!ONB-nifc: Melodiae na psalterz polski
**kern	**text	**kern	**text	**kern	**text	**kern	**text
*part4	*part4	*part3	*part3	*part2	*part2	*part1	*part1
*staff4	*staff4	*staff3	*staff3	*staff2	*staff2	*staff1	*staff1
*clefF3	*	*clefC3	*	*clefC1	*	*clefG2	*
*k[b-B-]	*	*k[b-]	*	*k[b-]	*	*k[b-]	*
*F:	*	*F:	*	*F:	*	*F:	*
*M2/1	*	*M2/1	*	*M2/1	*	*M2/1	*
*met(C|)	*	*met(C|)	*	*met(C|)	*	*met(C|)	*
*I"BASSUS.	*	*I"TENOR.	*	*I"ALTUS.	*	*I"CANTUS.	*
=1-	=1	=1-	=1	=1-	=1	=1-	=1
!LO:TX:t=P:dwa bemole przy kluczu:problem	!	!	!	!	!	!	!
1F\	TO-	1f\	TO-	1a\	TO-	1cc\	TO-
1F\	-bie	1f\	-bie	1a\	-bie	1cc\	-bie
=2-	=2	=2-	=2	=2-	=2	=2-	=2
1.B-\	nie-	1.f\	nie-	1.b-\	nie-	1.dd\	nie-
2c\	-śmier-	2e\	-śmier-	2g/	-śmier-	2cc\	-śmier-
=3-	=3	=3-	=3	=3-	=3	=3-	=3
2c\	-tel-	2e\	-tel-	2g/	-tel-	2cc\	-tel-
2d\	-ny	1f\	-ny	2f/	-ny	2b-/	-ny
1c\	pá-	.	.	1g\	pá-	2.cc\	pá-
.	.	2e\	pá-	.	.	.	.
.	.	.	.	.	.	4b-/	.
=4-	=4	=4-	=4	=4-	=4	=4-	=4
2F/	-nie,	2f\	-nie,	2f/	-nie,	2a/	-nie,
1c\	Pó-	1e\	Pó-	1g\	Pó-	1cc\	Pó-
2A\	-ki	2e\	-ki	4a\	-ki	2cc\	-ki
.	.	.	.	4g\	.	.	.
=5-	=5	=5-	=5	=5-	=5	=5-	=5
2.d\	mi	2.d\	mi	2.f/	mi	1a/	mi
4c\	ʒ̇y-	4e\	ʒ̇y-	4e/	ʒ̇y-	.	.
1.B-\	-wo-	1.f\	-wo-	2.d/	-wo-	1dd\	ʒ̇y-
.	.	.	.	4c/	.	.	.
=6-	=6	=6-	=6	=6-	=6	=6-	=6
.	.	.	.	4d/	-tá	2dd\	-wo-
.	.	.	.	4e/	.	.	.
2A\	-tá	2c/	-tá	1f/	ſtá-	2cc\	-tá
1G\	ſtá-	2d\	ſtá-	.	.	1b-\	ſtá-
.	.	2B-/	.	2e/	.	.	.
=7-	=7	=7-	=7	=7-	=7	=7-	=7
!!LO:PB:g=original
2F/	-nie	2c/	-nie	2f/	-nie	2a/	-nie
2F/	I	2f\	I	2a\	I	2cc\	I
2c\	u-	2e\	u-	2g/	u-	2cc\	u-
2A\	-ſtá	2e\	-ſtá	2a\	-ſtá	2cc\	-ſtá
=8-	=8	=8-	=8	=8-	=8	=8-	=8
2.d\	bę-	2.d\	bę-	2f/	bę-	2a/	bę-
.	.	.	.	2.d/	-dą	4ff\	-dą
4c\	-dą	4e\	-dą	.	.	4ee\	śpié-
4B-\	śpié-	2f\	.	.	.	4dd\	.
4A\	.	.	.	4e/	.	4cc\	.
4G\	.	2f\	śpié-	2f/	śpié-	4b-/	.
4F\	.	.	.	.	.	4a/	.
=9-	=9	=9-	=9	=9-	=9	=9-	=9
1G\	-wá-	2f\	-wá-	2B-/	-wá-	1b-\	-wá-
.	.	2e\	-ły,	2B-/	-ły,	.	.
2F\	-ły,	2f\	.	4c/	I	2a/	-ły,
.	.	.	.	4d/	.	.	.
2c\	.	2e\	I	4e/	.	4g/	.
.	.	.	.	4f/	.	4a/	I
=10-	=10	=10-	=10	=10-	=10	=10-	=10
4G\	I	2d\	gą-	4g/	.	4b-\	gą-
4A\	gą-	.	.	4f/	.	4cc\	-ſłe-
4B-\	-ſłe-	2B-/	-ſłe-	4d/	gą-	4dd\	-cʒki
4A\	.	.	.	4e/	-ſłe-	4cc\	.
4F\	-cʒki	2c/	-cʒki	4f/	-cʒki	4a/	mo-
4G\	.	.	.	4e/	.	4b-/	.
4A\	mo-	2f\	.	4c/	mo-	1cc\	-ie
4B-\	-ie	.	.	4d/	-ie	.	.
=11-	=11	=11-	=11	=11-	=11	=11-	=11
2c\	.	2e\	mo-	2e/	grá-	.	.
2d\	grá-	2d\	-ie	2f/	.	2b-/	grá-
1c\	-ły.	4e\	grá-	1g\	-ły.	1cc\	-ły.
.	.	2f\	-ły.	.	.	.	.
.	.	4e\	.	.	.	.	.
=12-	=12	=12-	=12	=12-	=12	=12-	=12
000F\	.	000f\	.	000a\	.	000cc\	.
==	==	==	==	==	==	==	==
*-	*-	*-	*-	*-	*-	*-	*-
!!!RDF**kern: l = terminal long
!!!system-decoration: s1,s2,s3,s4
!!!ENC: Marta Lawrence
!!!END: 2020-02-25
!!!URL-scan: https://polona.pl/item/melodiae-na-psalterz-polski,Nzk3MTM4ODQ/345 Scan on Polona
!!!IIIF: https://polona.pl/iiif/item/Nzk3MTM4ODQ/manifest.json
